library/css/icons/svgs/fi-play-circle.svg

<svg xmlns="http://www.w3.org/2000/svg" width="100" height="100" viewBox="0 0 100 100"><path d="M50 12.5c-20.712 0-37.5 16.793-37.5 37.502 0 20.71 16.788 37.498 37.5 37.498s37.5-16.788 37.5-37.498c0-20.709-16.788-37.502-37.5-37.502zm0 65.061c-15.199 0-27.56-12.362-27.56-27.559 0-15.195 12.362-27.562 27.56-27.562 15.198 0 27.56 12.367 27.56 27.562 0 15.196-12.362 27.559-27.56 27.559zM66.352 49.097l.006-.01-23.367-13.491-.006.01c-.156-.091-.328-.157-.521-.157-.585 0-1.059.475-1.059 1.06l.024.12h-.024v26.981h.024c.062.526.493.94 1.035.94.194 0 .365-.066.521-.157l.016.027 23.367-13.49-.016-.027c.316-.183.538-.511.538-.903s-.222-.719-.538-.903z"/></svg>

<?xml version="1.0" encoding="utf-8"?>
<!-- Generator: Adobe Illustrator 17.0.0, SVG Export Plug-In . SVG Version: 6.00 Build 0)  -->
<!DOCTYPE svg PUBLIC "-//W3C//DTD SVG 1.1//EN" "http://www.w3.org/Graphics/SVG/1.1/DTD/svg11.dtd">
<svg version="1.1" id="Layer_1" xmlns="http://www.w3.org/2000/svg" xmlns:xlink="http://www.w3.org/1999/xlink" x="0px" y="0px"
	 width="100px" height="100px" viewBox="0 0 100 100" enable-background="new 0 0 100 100" xml:space="preserve">
<g>
	<path d="M50,12.5c-20.712,0-37.5,16.793-37.5,37.502C12.5,70.712,29.288,87.5,50,87.5c20.712,0,37.5-16.788,37.5-37.498
		C87.5,29.293,70.712,12.5,50,12.5z M50,77.561c-15.199,0-27.56-12.362-27.56-27.559c0-15.195,12.362-27.562,27.56-27.562
		c15.198,0,27.56,12.367,27.56,27.562C77.56,65.198,65.198,77.561,50,77.561z"/>
	<path d="M66.352,49.097l0.006-0.01L42.991,35.596l-0.006,0.01c-0.156-0.091-0.328-0.157-0.521-0.157
		c-0.585,0-1.059,0.475-1.059,1.06c0,0.043,0.019,0.079,0.024,0.12h-0.024V63.61h0.024c0.062,0.526,0.493,0.94,1.035,0.94
		c0.194,0,0.365-0.066,0.521-0.157l0.016,0.027L66.368,50.93l-0.016-0.027c0.316-0.183,0.538-0.511,0.538-0.903
		C66.89,49.608,66.668,49.281,66.352,49.097z"/>
</g>
</svg>
